Gruvbox-Plus-Dark/actions/24/view-financial-category-income.svg

<svg width="24" height="24" version="1.1" xmlns="http://www.w3.org/2000/svg">
  <defs>
    <style type="text/css">.ColorScheme-Text { color:#ebdbb2; } .ColorScheme-Highlight { color:#458588; }</style>
  </defs>
  <path class="ColorScheme-Text" d="m5.375 5c-0.2077 0-0.375 0.1673-0.375 0.375v1.25c0 0.2077 0.1673 0.375 0.375 0.375h1.25c0.2077 0 0.375-0.1673 0.375-0.375v-1.25c0-0.2077-0.1673-0.375-0.375-0.375zm3.625 0v2h10v-2zm-3.625 4c-0.2077 0-0.375 0.1673-0.375 0.375v1.25c0 0.2077 0.1673 0.375 0.375 0.375h1.25c0.2077 0 0.375-0.1673 0.375-0.375v-1.25c0-0.2077-0.1673-0.375-0.375-0.375zm3.625 0v2h10v-2zm-3.625 4c-0.2077 0-0.375 0.1673-0.375 0.375v1.25c0 0.2078 0.1673 0.375 0.375 0.375h1.25c0.2077 0 0.375-0.1672 0.375-0.375v-1.25c0-0.2077-0.1673-0.375-0.375-0.375zm3.625 0v2h5v-2zm-3.625 4c-0.2077 0-0.375 0.1672-0.375 0.375v1.25c0 0.2078 0.1673 0.375 0.375 0.375h1.25c0.2077 0 0.375-0.1672 0.375-0.375v-1.25c0-0.2078-0.1673-0.375-0.375-0.375zm3.625 0v2h5v-2zm7-2.949c-0.5523 0-1 0.4477-1 1s0.4477 1 1 1 1-0.4477 1-1-0.4477-1-1-1zm2 0.05469v1.033c0.5986 0.2116 0.9991 0.7772 1 1.412-8.91e-4 0.6349-0.4014 1.2-1 1.412v1.037c1.164-0.2376 2-1.261 2-2.449-2e-3 -1.186-0.8376-2.208-2-2.445zm-2 2.945c-0.5523 0-1 0.4477-1 1s0.4477 1 1 1 1-0.4477 1-1-0.4477-1-1-1z" fill="currentColor"/>
</svg>

<svg width="24" height="24" version="1.1" xmlns="http://www.w3.org/2000/svg">
  <defs>
    <style type="text/css">.ColorScheme-Text { color:#ebdbb2; } .ColorScheme-Highlight { color:#458588; } .ColorScheme-PositiveText { color:#689d6a; }</style>
  </defs>
  <path class="ColorScheme-Text" d="M 5.375,5 C 5.1673,5 5,5.1673 5,5.375 v 1.25 C 5,6.8327 5.1673,7 5.375,7 h 1.25 C 6.8327,7 7,6.8327 7,6.625 V 5.375 C 7,5.1673 6.8327,5 6.625,5 Z M 9,5 V 7 H 19 V 5 Z M 5.375,9 C 5.1673,9 5,9.1673 5,9.375 v 1.25 C 5,10.8327 5.1673,11 5.375,11 h 1.25 C 6.8327,11 7,10.8327 7,10.625 V 9.375 C 7,9.1673 6.8327,9 6.625,9 Z M 9,9 v 2 H 19 V 9 Z M 5.375,13 C 5.1673,13 5,13.1673 5,13.375 v 1.25 C 5,14.8328 5.1673,15 5.375,15 h 1.25 C 6.8327,15 7,14.8328 7,14.625 v -1.25 C 7,13.1673 6.8327,13 6.625,13 Z M 9,13 v 2 h 4 l 2,-2 z M 5.375,17 C 5.1673,17 5,17.1672 5,17.375 v 1.25 C 5,18.8328 5.1673,19 5.375,19 h 1.25 C 6.8327,19 7,18.8328 7,18.625 v -1.25 C 7,17.1672 6.8327,17 6.625,17 Z M 9,17 v 2 h 6 l -2,-2 z" fill="currentColor"/>
  <path class="ColorScheme-PositiveText" d="m14 16 3.489-3v2h2.511v2h-2.511v2z" fill="currentColor"/>
</svg>
